tools/download-figma-icons/icons/solid/coin.svg

<svg width="24" height="24" viewBox="0 0 24 24" fill="none" xmlns="http://www.w3.org/2000/svg">
<path fill-rule="evenodd" clip-rule="evenodd" d="M11.25 9.75002C11.6625 9.75002 12 10.0875 12 10.5C12 10.9125 11.6625 11.25 11.25 11.25H8.31C8.235 11.745 8.235 12.255 8.31 12.75H11.25C11.6625 12.75 12 13.0875 12 13.5C12 13.9125 11.6625 14.25 11.25 14.25H8.8125C8.9925 14.5875 9.195 14.9175 9.465 15.2025C10.545 16.38 12.1125 16.7925 13.5525 16.2825C13.89 16.17 14.2275 15.9825 14.5575 15.7425C14.8875 15.495 15.36 15.57 15.6 15.9C15.8475 16.23 15.78 16.7025 15.4425 16.95C15 17.28 14.5275 17.535 14.055 17.7C13.4775 17.9025 12.885 18.0075 12.3 18.0075C10.845 18.0075 9.42 17.385 8.355 16.215C7.8225 15.6375 7.425 14.97 7.155 14.25H6C5.5875 14.25 5.25 13.9125 5.25 13.5C5.25 13.0875 5.5875 12.75 6 12.75H6.8025C6.75 12.255 6.75 11.745 6.8025 11.25H6C5.5875 11.25 5.25 10.9125 5.25 10.5C5.25 10.0875 5.5875 9.75002 6 9.75002H7.155C7.425 9.03002 7.8225 8.36252 8.355 7.77752C10.245 5.71502 13.2225 5.40752 15.4425 7.04252C15.78 7.28252 15.8475 7.75502 15.6075 8.09252C15.36 8.42252 14.8875 8.49752 14.5575 8.25002C12.9675 7.08002 10.8225 7.31252 9.465 8.79002C9.195 9.08252 8.9925 9.41252 8.8125 9.75002H11.25ZM12 0C5.385 0 0 5.385 0 12C0 18.615 5.385 24 12 24C18.615 24 24 18.615 24 12C24 5.385 18.615 0 12 0Z" fill="black"/>
</svg>

<svg width="24" height="24" viewBox="0 0 24 24" fill="none" xmlns="http://www.w3.org/2000/svg"><path fill-rule="evenodd" clip-rule="evenodd" d="M11.25 9.75c.412 0 .75.338.75.75s-.338.75-.75.75H8.31a5.028 5.028 0 0 0 0 1.5h2.94c.412 0 .75.338.75.75s-.338.75-.75.75H8.812c.18.338.383.668.653.953 1.08 1.177 2.648 1.59 4.088 1.08.337-.113.674-.3 1.004-.54a.744.744 0 0 1 1.043.157c.248.33.18.803-.157 1.05a5.228 5.228 0 0 1-3.143 1.058c-1.455 0-2.88-.623-3.945-1.793a5.98 5.98 0 0 1-1.2-1.965H6a.752.752 0 0 1-.75-.75c0-.412.338-.75.75-.75h.803a7.163 7.163 0 0 1 0-1.5H6a.752.752 0 0 1-.75-.75c0-.412.338-.75.75-.75h1.155a6.09 6.09 0 0 1 1.2-1.972c1.89-2.063 4.867-2.37 7.088-.735.337.24.405.712.165 1.05a.754.754 0 0 1-1.05.157c-1.59-1.17-3.736-.937-5.093.54-.27.293-.473.623-.652.96h2.437ZM12 0C5.385 0 0 5.385 0 12s5.385 12 12 12 12-5.385 12-12S18.615 0 12 0Z" fill="currentColor"/></svg>
